X: 7580
T: Cocoon, The
R: jig
M: 6/8
K: Dmajor
|:FAA GBB|FAd fed|cBc ABc|dfe dAG|
FAA GBB|FAd fed|cBc ABc|dfe d3:|
|:dBB fBB|dBd fed|cAA eAA|cAc edc|
dBB fBB|dBd fed|cBc ABc|dfe d3:|

